!!!!SEGMENT: Any2020-Qui_prophetice_prompsisti-Christi_Dominus.krn
!!!id: Any2020
!!!AGN: Motet
!!!voices: 5
!!!COM: Anonymous
!!!OPR: Qui prophetice prompsisti
!!!OTL: Christi Dominus
**kern	**kern	**text	**kern	**kern	**text	**kern	**text
*part5	*part4	*part4	*part3	*part2	*part2	*part1	*part1
*staff5	*staff4	*staff4	*staff3	*staff2	*staff2	*staff1	*staff1
*I"Bassus	*I"Tenor II	*	*I"Tenor I	*I"Altus	*	*I"Superius	*
*I'B	*I'T. II	*	*I'T. I	*I'A	*	*I'S	*
*clefF4	*clefGv2	*	*clefGv2	*clefG2	*	*clefG2	*
*k[b-]	*k[b-]	*	*k[b-]	*k[b-]	*	*k[b-]	*
*F:	*F:	*	*F:	*F:	*	*F:	*
*M2/1	*M2/1	*	*M2/1	*M2/1	*	*M2/1	*
*met(C|)	*met(C|)	*	*met(C|)	*met(C|)	*	*met(C|)	*
!!section: Quarta pars: Vita, dulcedo
!!!OMD: Quarta pars: Vita, dulcedo
=1	=1	=1	=1	=1	=1	=1	=1
!	!	!	!	!	!	!LO:TX:a:t=Tenor I and Bassus drawn from Berlin 119 \n	!
1A	0r	.	1r	0r	.	0r	.
[1G	.	.	1e	.	.	.	.
=2	=2	=2	=2	=2	=2	=2	=2
2G]	0r	.	1.d	0r	.	0r	.
1B-y	.	.	.	.	.	.	.
2A	.	.	[2f	.	.	.	.
=3	=3	=3	=3	=3	=3	=3	=3
1G	0r	.	2f]	0r	.	0r	.
.	.	.	2e	.	.	.	.
[1F	.	.	1d	.	.	.	.
=4	=4	=4	=4	=4	=4	=4	=4
1F]	0r	.	2c	0r	.	1a	Chri-
.	.	.	1f	.	.	.	.
1C	.	.	.	.	.	[1g	-stus
.	.	.	2e	.	.	.	.
=5	=5	=5	=5	=5	=5	=5	=5
1.G	0r	.	4d	0r	.	2g]	.
.	.	.	4c	.	.	.	.
.	.	.	4B-y	.	.	1b-y	.
.	.	.	4A	.	.	.	.
.	.	.	4G	.	.	.	.
.	.	.	4F	.	.	.	.
2A	.	.	[2f	.	.	2a	.
=6	=6	=6	=6	=6	=6	=6	=6
2B-y	0r	.	2f]	0r	.	1g	.
2c	.	.	2e	.	.	.	.
1F	.	.	1d	.	.	2f	Do-
.	.	.	.	.	.	2a	.
=7	=7	=7	=7	=7	=7	=7	=7
1r	0r	.	1d	0r	.	4b-y	.
.	.	.	.	.	.	4a	.
.	.	.	.	.	.	2.dd	.
1G	.	.	1d	.	.	.	.
.	.	.	.	.	.	4cc	.
.	.	.	.	.	.	4b-y	.
.	.	.	.	.	.	4a	.
=8	=8	=8	=8	=8	=8	=8	=8
1G	0r	.	1e	0r	.	4g	.
.	.	.	.	.	.	4f	.
.	.	.	.	.	.	4e	.
.	.	.	.	.	.	4d	.
1A	.	.	1e	.	.	2c	.
.	.	.	.	.	.	[2cc	.
=9	=9	=9	=9	=9	=9	=9	=9
1A	0r	.	2r	0r	.	2cc]	.
.	.	.	1f	.	.	2a	-mi-
2r	.	.	.	.	.	2a	-nus,
2A	.	.	2e	.	.	2cc	Chri-
=10	=10	=10	=10	=10	=10	=10	=10
2G	0r	.	2g	0r	.	2.b-y	.
1B-y	.	.	4f	.	.	.	.
.	.	.	4e	.	.	4a	.
.	.	.	4d	.	.	2g	.
.	.	.	4c	.	.	.	.
2A	.	.	[2f	.	.	2f	.
=11	=11	=11	=11	=11	=11	=11	=11
1G	0r	.	2f]	0r	.	1b-y	-stus
.	.	.	2e	.	.	.	.
1F	.	.	2f	.	.	1a	.
.	.	.	2c	.	.	.	.
=12	=12	=12	=12	=12	=12	=12	=12
2r	0r	.	2B-y	0r	.	1g	.
2E	.	.	2c	.	.	.	.
2D	.	.	2.d	.	.	2f	.
[2F	.	.	.	.	.	2a	Do-
.	.	.	8cL	.	.	.	.
.	.	.	8B-yJ	.	.	.	.
=13	=13	=13	=13	=13	=13	=13	=13
2F]	0r	.	4A	0r	.	2.cc	.
.	.	.	4G	.	.	.	.
2E	.	.	1c	.	.	.	.
.	.	.	.	.	.	8ddL	.
.	.	.	.	.	.	8eeJ	.
1D	.	.	.	.	.	1ff	.
.	.	.	2BnXi	.	.	.	.
=14	=14	=14	=14	=14	=14	=14	=14
1C	0r	.	2c	0r	.	2ee	.
.	.	.	2e	.	.	2cc	.
2r	.	.	2d	.	.	2.dd	.
2F	.	.	[2f	.	.	.	.
.	.	.	.	.	.	8ccL	.
.	.	.	.	.	.	8b-yJ	.
=15	=15	=15	=15	=15	=15	=15	=15
2D	0r	.	2f]	0r	.	4a	.
.	.	.	.	.	.	4g	.
2E	.	.	2e	.	.	1cc	.
2F	.	.	1d	.	.	.	.
2G	.	.	.	.	.	2b-y	-mi-
=16	=16	=16	=16	=16	=16	=16	=16
0A	0r	.	2.c	0r	.	1cc	-nus,
.	.	.	4d	.	.	.	.
.	.	.	4e	.	.	1a	Do-
.	.	.	4c	.	.	.	.
.	.	.	4e	.	.	.	.
.	.	.	4f	.	.	.	.
=17	=17	=17	=17	=17	=17	=17	=17
1G	0r	.	2.g	0r	.	2.b-y	.
.	.	.	4f	.	.	4a	.
[1B-y	.	.	2.d	.	.	1g	.
.	.	.	4e	.	.	.	.
=18	=18	=18	=18	=18	=18	=18	=18
1B-]	0r	.	2f	0r	.	1f	.
.	.	.	2d	.	.	.	.
1A	.	.	2e	.	.	2cc	.
.	.	.	2f	.	.	2a	.
=19	=19	=19	=19	=19	=19	=19	=19
0G	0r	.	4g	0r	.	4b-y	.
.	.	.	4f	.	.	4a	.
.	.	.	4e	.	.	4g	.
.	.	.	4d	.	.	4f	.
.	.	.	1e	.	.	1g	.
=20	=20	=20	=20	=20	=20	=20	=20
2.F	[0A	Chri-	2f	0r	.	1a	-mi-
.	.	.	2c	.	.	.	.
4E	.	.	.	.	.	.	.
2.D	.	.	1d	.	.	1f	-nus
8CL	.	.	.	.	.	.	.
8BB-yJ	.	.	.	.	.	.	.
=21	=21	=21	=21	=21	=21	=21	=21
0AA	0A]	.	0c	[0e	Chri-	[0cc	.
=22	=22	=22	=22	=22	=22	=22	=22
0C	[0G	-stus	2c	0e]	.	1cc]	.
.	.	.	2G	.	.	.	.
.	.	.	1c	.	.	1g	.
=23	=23	=23	=23	=23	=23	=23	=23
0GG	0G]	.	1.B-y	[0d	-stus	[0b-y	.
.	.	.	2A	.	.	.	.
=24	=24	=24	=24	=24	=24	=24	=24
1GG	[0B-y	.	1G	0d]	.	1b-]	.
1BB-y	.	.	[1F	.	.	[1dd	.
=25	=25	=25	=25	=25	=25	=25	=25
0BB-y	0B-]	.	2F]	[0f	.	0dd]	.
.	.	.	2E	.	.	.	.
.	.	.	1D	.	.	.	.
=26	=26	=26	=26	=26	=26	=26	=26
0FF	[0A	.	0C	0f]	.	1.ff	.
.	.	.	.	.	.	4ee	.
.	.	.	.	.	.	4dd	.
=27	=27	=27	=27	=27	=27	=27	=27
1r	0A]	.	0c	[0e	.	[0cc	.
1AA	.	.	.	.	.	.	.
=28	=28	=28	=28	=28	=28	=28	=28
1.C	[0G	.	2c	0e]	.	1cc]	.
.	.	.	2G	.	.	.	.
.	.	.	1c	.	.	1g	.
4BB-y	.	.	.	.	.	.	.
4AA	.	.	.	.	.	.	.
=29	=29	=29	=29	=29	=29	=29	=29
0GG	0G]	.	0B-y	[0d	.	0cc	.
=30	=30	=30	=30	=30	=30	=30	=30
0BB-y	[0F	.	0B-y	0d]	.	1b-y	.
.	.	.	.	.	.	1f	.
=31	=31	=31	=31	=31	=31	=31	=31
1FF	0F]	.	1.A	[0c	.	1f	.
1F	.	.	.	.	.	1a	.
.	.	.	[2c	.	.	.	.
=32	=32	=32	=32	=32	=32	=32	=32
1.C	0r	.	2c]	0c]	.	0g	.
.	.	.	4B-y	.	.	.	.
.	.	.	4A	.	.	.	.
.	.	.	1G	.	.	.	.
2BBnX	.	.	.	.	.	.	.
=33	=33	=33	=33	=33	=33	=33	=33
0D	0r	.	0A	0d	Do-	2f	.
.	.	.	.	.	.	2.ff	.
.	.	.	.	.	.	4ee	.
.	.	.	.	.	.	4dd	.
.	.	.	.	.	.	4cc	.
=34	=34	=34	=34	=34	=34	=34	=34
0GG	0G	Do-	2B-y	0d	-mi-	2dd	.
.	.	.	2c	.	.	1cc	.
.	.	.	1d	.	.	.	.
.	.	.	.	.	.	2b-y	.
=35	=35	=35	=35	=35	=35	=35	=35
0C	0G	-mi-	1.c	0e	.	2cc	.
.	.	.	.	.	.	2g	.
.	.	.	.	.	.	[1cc	fa-
.	.	.	2G	.	.	.	.
=36	=36	=36	=36	=36	=36	=36	=36
1AA	0A	.	2c	0e	-nus	1cc]	.
.	.	.	2d	.	.	.	.
1AA	.	.	1e	.	.	1cc	-ctus
=37	=37	=37	=37	=37	=37	=37	=37
0r	0A	-nus	1f	0r	.	1dd	.
.	.	.	1r	.	.	2a	est
.	.	.	.	.	.	2cc	.
=38	=38	=38	=38	=38	=38	=38	=38
1G	0r	.	0r	0r	.	4b-y	.
.	.	.	.	.	.	4a	.
.	.	.	.	.	.	2.b-y	.
1G	.	.	.	.	.	.	.
.	.	.	.	.	.	4a	.
.	.	.	.	.	.	4g	.
.	.	.	.	.	.	4f	.
=39	=39	=39	=39	=39	=39	=39	=39
1A	0r	.	1c	0r	.	2e	.
.	.	.	.	.	.	2.a	.
1A	.	.	1c	.	.	.	.
.	.	.	.	.	.	4b-y	.
.	.	.	.	.	.	2cc	.
=40	=40	=40	=40	=40	=40	=40	=40
2G	0r	.	1d	0r	.	2b-y	.
2F	.	.	.	.	.	2.a	.
2B-y	.	.	1d	.	.	.	.
.	.	.	.	.	.	4f	.
2B-y	.	.	.	.	.	2g	.
=41	=41	=41	=41	=41	=41	=41	=41
1A	0r	.	1c	0r	.	2a	.
.	.	.	.	.	.	4cc	.
.	.	.	.	.	.	4cc	.
1r	.	.	1B-y	.	.	2dd	.
.	.	.	.	.	.	2dd	.
=42	=42	=42	=42	=42	=42	=42	=42
1c	0r	.	2A	0r	.	2cc	.
.	.	.	2.c	.	.	2g	.
1c	.	.	.	.	.	2a	.
.	.	.	4B-y	.	.	.	.
.	.	.	[2A	.	.	[2cc	.
=43	=43	=43	=43	=43	=43	=43	=43
1d	0r	.	2A]	0r	.	2cc]	.
.	.	.	4G	.	.	4b-y	.
.	.	.	4F	.	.	4a	.
1d	.	.	1G	.	.	4b-y	.
.	.	.	.	.	.	4a	.
.	.	.	.	.	.	4g	.
.	.	.	.	.	.	4f	.
=44	=44	=44	=44	=44	=44	=44	=44
2.c	0r	.	1A	0r	.	1e	.
4B-y	.	.	.	.	.	.	.
4A	.	.	1r	.	.	2f	.
4G	.	.	.	.	.	.	.
[2B-y	.	.	.	.	.	2d	.
=45	=45	=45	=45	=45	=45	=45	=45
4B-]	0r	.	2r	0r	.	2g	.
4A	.	.	.	.	.	.	.
1A	.	.	2c	.	.	2a	.
.	.	.	1d	.	.	1b-y	.
2G	.	.	.	.	.	.	.
=46	=46	=46	=46	=46	=46	=46	=46
0A	0r	.	2.c	0r	.	1a	.
.	.	.	4d	.	.	.	.
.	.	.	2e	.	.	2r	.
.	.	.	2f	.	.	2cc	.
=47	=47	=47	=47	=47	=47	=47	=47
1G	0r	.	1d	0g	fa-	2b-y	.
.	.	.	.	.	.	2g	.
1G	.	.	1B-y	.	.	1dd	.
=48	=48	=48	=48	=48	=48	=48	=48
0C	0c	fa-	2c	0g	-ctus	2ee	.
.	.	.	4B-y	.	.	1ff	.
.	.	.	4A	.	.	.	.
.	.	.	1G	.	.	.	.
.	.	.	.	.	.	2ee	.
=49	=49	=49	=49	=49	=49	=49	=49
1.F	0c	-ctus	0F	0a	.	[0ff	.
2E	.	.	.	.	.	.	.
=50	=50	=50	=50	=50	=50	=50	=50
0D	0d	.	0A	0a	est	0ff_	.
=51	=51	=51	=51	=51	=51	=51	=51
0BB-y	0d	est	0B-y	0r	.	0ff]	.
=52	=52	=52	=52	=52	=52	=52	=52
1C	1c	o-	1g	0r	.	1ee	.
1D	1B-y	.	1f	.	.	1dd	.
=53	=53	=53	=53	=53	=53	=53	=53
1C	0c	-be-	1g	1g	o-	1g	.
1A	.	.	1c	1f	.	1a	.
=54	=54	=54	=54	=54	=54	=54	=54
0G	0B-y	-di-	0d	0g	-be-	1.b-y	.
.	.	.	.	.	.	[2dd	.
=55	=55	=55	=55	=55	=55	=55	=55
0D	0A	.	1r	0f	-di-	1dd]	.
.	.	.	1d	.	.	1a	.
=56	=56	=56	=56	=56	=56	=56	=56
0AA	0A	-ens	0c	0e	.	0cc	.
=57	=57	=57	=57	=57	=57	=57	=57
0C	0r	.	0G	0e	-ens	2r	.
.	.	.	.	.	.	2.c	.
.	.	.	.	.	.	4d	.
.	.	.	.	.	.	4e	.
.	.	.	.	.	.	4f	.
=58	=58	=58	=58	=58	=58	=58	=58
2GG	0r	.	0G	0r	.	2g	.
2C	.	.	.	.	.	2e	.
2D	.	.	.	.	.	2.g	.
4E	.	.	.	.	.	.	.
4F	.	.	.	.	.	4a	.
=59	=59	=59	=59	=59	=59	=59	=59
2G	[0B-y	us-	1r	0r	.	2b-y	.
2E	.	.	.	.	.	2g	.
2.G	.	.	1d	.	.	2.b-y	.
4A	.	.	.	.	.	4cc	.
=60	=60	=60	=60	=60	=60	=60	=60
2B-y	0B-]	.	0d	[0f	us-	2dd	.
2.C	.	.	.	.	.	2.d	.
4D	.	.	.	.	.	4e	.
2E	.	.	.	.	.	4f	.
.	.	.	.	.	.	4g	.
=61	=61	=61	=61	=61	=61	=61	=61
2F	[0A	.	2c	0f]	.	2a	.
2D	.	.	2d	.	.	2f	.
2.F	.	.	1c	.	.	2.a	.
4G	.	.	.	.	.	4b-y	.
=62	=62	=62	=62	=62	=62	=62	=62
2A	0A]	.	0c	[0e	.	2cc	.
2.AA	.	.	.	.	.	2.c	.
4BB-y	.	.	.	.	.	4d	.
4C	.	.	.	.	.	4e	.
4D	.	.	.	.	.	4f	.
=63	=63	=63	=63	=63	=63	=63	=63
2E	[0G	.	0c	0e]	.	2g	.
2C	.	.	.	.	.	2e	.
2.E	.	.	.	.	.	2.g	.
4F	.	.	.	.	.	4a	.
=64	=64	=64	=64	=64	=64	=64	=64
2G	0G]	.	0B-y	[0d	.	4b-y	.
.	.	.	.	.	.	4g	.
2.G	.	.	.	.	.	4b-y	.
.	.	.	.	.	.	4cc	.
.	.	.	.	.	.	1dd	.
4A	.	.	.	.	.	.	.
4B-y	.	.	.	.	.	.	.
4C	.	.	.	.	.	.	.
=65	=65	=65	=65	=65	=65	=65	=65
2D	[0F	-que	1A	0d]	.	2r	.
2BB-y	.	.	.	.	.	2.d	.
2.D	.	.	1B-y	.	.	.	.
.	.	.	.	.	.	4e	.
.	.	.	.	.	.	4f	.
4E	.	.	.	.	.	4g	.
=66	=66	=66	=66	=66	=66	=66	=66
2F	0F]	.	1A	[0c	-que	4a	.
.	.	.	.	.	.	4g	.
2.FF	.	.	.	.	.	4a	.
.	.	.	.	.	.	4b-y	.
.	.	.	1A	.	.	2cc	.
4GG	.	.	.	.	.	.	.
4AA	.	.	.	.	.	[2c	.
4BB-y	.	.	.	.	.	.	.
=67	=67	=67	=67	=67	=67	=67	=67
4C	1r	.	0G	0c]	.	4c]	.
4BB-y	.	.	.	.	.	4d	.
4C	.	.	.	.	.	4e	.
4D	.	.	.	.	.	4f	.
4E	1G	ad	.	.	.	4g	.
4D	.	.	.	.	.	4f	.
4E	.	.	.	.	.	4g	.
4F	.	.	.	.	.	4a	.
=68	=68	=68	=68	=68	=68	=68	=68
2G	0B-y	mor-	0d	1r	.	4b-y	.
.	.	.	.	.	.	4a	.
2.GG	.	.	.	.	.	4b-y	.
.	.	.	.	.	.	4cc	.
.	.	.	.	1d	ad	2dd	.
4AA	.	.	.	.	.	.	.
4BB-y	.	.	.	.	.	[2d	.
4C	.	.	.	.	.	.	.
=69	=69	=69	=69	=69	=69	=69	=69
4D	0A	.	1d	0f	mor-	4d]	.
4C	.	.	.	.	.	4e	.
4D	.	.	.	.	.	4f	.
4E	.	.	.	.	.	4g	.
4F	.	.	1c	.	.	4a	.
4E	.	.	.	.	.	4g	.
4F	.	.	.	.	.	4a	.
4G	.	.	.	.	.	4b-y	.
=70	=70	=70	=70	=70	=70	=70	=70
0A	[0Al	-tem.	0c	0e	.	1.cc	.
.	.	.	.	.	.	2a	.
=71	=71	=71	=71	=71	=71	=71	=71
00AAl	00A]	.	00cl	00el	-tem.	00al	.
==	==	==	==	==	==	==	==
*-	*-	*-	*-	*-	*-	*-	*-
!!!system-decoration: [*]
!!!RDF**kern: i = editorial accidental
!!!RDF**kern: l = terminal long
!!!!PTL: <i> New Senfl Edition: Motets for Five Voices</i>
!!!PPR: Hollitzer Verlag
!!!PC#: Denkmäler der Tonkunst in Österreich 163.3
!!!PDT: 2022
!!!PED: Scott Lee Edwards, Stefan Gasch, and Sonja Tröster
!!!YEC: Copyright 2022 Denkmäler der Tonkunst in Österreich
!!!YEM: CC-BY-NC 4.0 (https://creativecommons.org/licenses/by-nc/4.0/legalcode)
!!!EED: Benjamin Ory
!!!EEV: 2025/11/7
!!!verovio: header encoded
!!!header-left: @{PTL}\n@{PED}, eds.\n@{PC#} (@{PDT})&nbsp;\n
!!!header-right:
!!!header-center: